Otagle3/Assets/ikonySvG/PokazSchowek_K.svg

<?xml version="1.0" encoding="UTF-8" standalone="no"?>
<svg
   xmlns:dc="http://purl.org/dc/elements/1.1/"
   xmlns:cc="http://creativecommons.org/ns#"
   xmlns:rdf="http://www.w3.org/1999/02/22-rdf-syntax-ns#"
   xmlns:svg="http://www.w3.org/2000/svg"
   xmlns="http://www.w3.org/2000/svg"
   id="svg47"
   version="1.1"
   viewBox="0 0 52.758294 52.758296"
   height="199.40143"
   width="199.40143">
  <defs
     id="defs42">
    <pattern
       id="EMFhbasepattern"
       patternUnits="userSpaceOnUse"
       width="6"
       height="6"
       x="0"
       y="0" />
  </defs>
  <metadata
     id="metadata45">
    <rdf:RDF>
      <cc:Work
         rdf:about="">
        <dc:format>image/svg+xml</dc:format>
        <dc:type
           rdf:resource="http://purl.org/dc/dcmitype/StillImage" />
        <dc:title></dc:title>
      </cc:Work>
    </rdf:RDF>
  </metadata>
  <g
     id="g8556"
     transform="translate(49.836509,-375.23204)">
    <g
       id="g5305">
      <text
         id="text898-7-3-6-8-3-3-0-66-7-8-8-0-8-3-4-2-6-22-3-3-4-7-0-2-6-2"
         y="425.61624"
         x="-23.21401"
         style="font-size:6.3499999px;line-height:0.94999999;font-family:voestalpine;-inkscape-font-specification:voestalpine;text-align:center;letter-spacing:0px;word-spacing:0px;text-anchor:middle;fill:#ffffff;fill-opacity:1;stroke-width:0.26458299"
         xml:space="preserve"><tspan
           style="font-size:6.3499999px;text-align:center;text-anchor:middle;fill:#ffffff;fill-opacity:1;stroke-width:0.26458299"
           y="425.61624"
           x="-23.21401"
           id="tspan3280-8-2-3-8">Pokaż nagłówek</tspan></text>
      <g
         style="fill:#ffffff;fill-opacity:1;stroke:#ffffff;stroke-opacity:1"
         id="g3425-7-6"
         transform="matrix(0.43424404,0,0,-0.43424404,-44.80073,415.59384)">
        <rect
           id="rect3393-7-1"
           height="2"
           width="13.89"
           y="68.667"
           x="17.409"
           style="fill:#ffffff;fill-opacity:1;stroke:#ffffff;stroke-opacity:1" />
        <path
           id="path3395-1-7"
           d="M 85.235,77.833 H 14.106 c -2.998,0 -5.436,-2.438 -5.436,-5.436 V 23.27 c 0,-2.998 2.438,-5.436 5.436,-5.436 h 71.129 c 2.998,0 5.436,2.438 5.436,5.436 v 49.128 c -0.001,2.998 -2.438,5.435 -5.436,5.435 z m -71.129,-58 c -1.895,0 -3.436,1.541 -3.436,3.437 v 49.128 c 0,1.895 1.541,3.436 3.436,3.436 h 71.129 c 1.895,0 3.436,-1.541 3.436,-3.436 V 23.27 c 0,-1.896 -1.541,-3.437 -3.436,-3.437 z"
           style="fill:#ffffff;fill-opacity:1;stroke:#ffffff;stroke-opacity:1" />
        <rect
           id="rect3397-6-6"
           height="2"
           width="13.89"
           y="68.667"
           x="42.648998"
           style="fill:#ffffff;fill-opacity:1;stroke:#ffffff;stroke-opacity:1" />
        <rect
           id="rect3399-8-5"
           height="2"
           width="13.89"
           y="68.667"
           x="67.704002"
           style="fill:#ffffff;fill-opacity:1;stroke:#ffffff;stroke-opacity:1" />
        <rect
           id="rect3401-4-7"
           height="2"
           width="13.89"
           y="62.667"
           x="17.500999"
           style="fill:#ffffff;fill-opacity:1;stroke:#ffffff;stroke-opacity:1" />
        <rect
           id="rect3403-9-4"
           height="2"
           width="13.89"
           y="62.667"
           x="42.742001"
           style="fill:#ffffff;fill-opacity:1;stroke:#ffffff;stroke-opacity:1" />
        <rect
           id="rect3405-2-5"
           height="2"
           width="13.89"
           y="62.667"
           x="67.795998"
           style="fill:#ffffff;fill-opacity:1;stroke:#ffffff;stroke-opacity:1" />
        <rect
           id="rect3407-0-9"
           height="2"
           width="64.139"
           y="56.667"
           x="17.500999"
           style="fill:#ffffff;fill-opacity:1;stroke:#ffffff;stroke-opacity:1" />
      </g>
      <g
         id="g1304"
         transform="translate(-320.71945,182.81468)">
        <rect
           y="192.32553"
           x="271.10068"
           height="52.63237"
           width="52.632374"
           id="rect833-2-8-6-2-6-4-8-1-7-4-6-9-4-5-2-1-0-8-7-5-5"
           style="fill:#87deaa;fill-opacity:1;stroke:#000000;stroke-width:0.28429499;stroke-linecap:round;stroke-miterlimit:4;stroke-dasharray:none;stroke-opacity:1;paint-order:fill markers stroke" />
        <text
           id="text837-2-5-3-5-4-2-1-6-9-68-0-7-6-7-4-4-4-2-0-6-7"
           y="243.43726"
           x="297.09879"
           style="font-size:6.3499999px;line-height:1.04999995;font-family:voestalpine;-inkscape-font-specification:voestalpine;text-align:end;letter-spacing:0px;word-spacing:0px;text-anchor:end;stroke-width:0.26458299"
           xml:space="preserve"><tspan
             style="font-size:6.3499999px;text-align:center;text-anchor:middle;stroke-width:0.26458299"
             y="243.43726"
             x="297.09879"
             id="tspan4310-4-3">Pokaż schowek</tspan></text>
        <g
           style="fill:#000000"
           id="g4691"
           transform="matrix(0.30925324,0,0,0.30925324,283.87158,195.79166)">
          <path
             id="path4674"
             d="m 31.7,61.6 c -1,-11.3 12.5,-18.5 13,-18.8 L 47.5,48 C 47.4,48.1 37,53.7 37.6,61.1 Z" />
          <path
             id="path4676"
             d="m 38.1,73.8 10.6,5.9 c -3,1.9 -6.7,3 -8.5,3.3 l 1,5.8 c 0.4,-0.1 7.9,-1.4 13.2,-6 l 14.1,7.8 2.9,-5.2 -13.2,-7.3 c 0.5,-1 0.9,-2 1.2,-3.2 l -5.8,-1.3 c -0.1,0.6 -0.4,1.1 -0.6,1.7 l -4.9,-2.7 24.3,-22.3 -32,-19.8 -3.1,5 25.3,15.7 z" />
          <path
             id="path4678"
             d="M 75,23.5 V 10.8 H 64.1 V 0 H 0 V 75.5 H 10.8 V 86.3 H 23.5 V 99 H 87.6 V 23.5 Z M 10.8,10.8 V 28.4 C 9,31.1 7.8,34.3 8.1,38 l 2.7,-0.2 V 69.5 H 5.9 V 5.9 h 52.3 v 4.9 H 23.1 L 16.8,7 14.4,10.9 h -3.6 z m 14.9,12.7 h -2.1 v 13.4 c -2.7,3.1 -4.9,7.2 -4.5,12 l 4.5,-0.4 V 80.4 H 16.8 V 16.8 h 52.3 v 6.8 H 36.9 l -9.2,-5.7 -3.1,5 z m 56,69.6 H 29.4 V 29.4 h 52.3 z" />
        </g>
      </g>
    </g>
  </g>
</svg>

<svg id="SVGRoot" width="208" height="208" version="1.1" viewBox="0 0 208 208" xmlns="http://www.w3.org/2000/svg">
 <g transform="translate(0,7)">
  <g transform="matrix(3.7795 0 0 3.7795 10.171 -6.7758)">
   <g transform="translate(-1.0884 -121.69)">
    <g transform="translate(1.6608 -59.209)">
     <g transform="translate(-.6443 -59.335)">
      <g transform="translate(-1396.8 269.89)">
       <g transform="translate(-57.972 -.024822)">
        <g transform="translate(1658.1 73.867)">
         <g transform="translate(-203.03 -103.33)">
          <flowRoot transform="matrix(.26458 0 0 .26458 -2.875 1.091)" fill="#000000" font-family="sans-serif" font-size="40px" letter-spacing="0px" word-spacing="0px" style="line-height:1.25" xml:space="preserve"><flowRegion><rect x="-85.582" y="-60.812" width="342.33" height="293.65"/></flowRegion><flowPara/></flowRoot>
          <g transform="translate(-1039.4 318.88)">
           <flowRoot transform="matrix(.26458 0 0 .26458 1036.5 -317.79)" fill="#000000" font-family="sans-serif" font-size="40px" letter-spacing="0px" word-spacing="0px" style="line-height:1.25" xml:space="preserve"><flowRegion><rect x="-105.21" y="-13.703" width="562.17" height="513.49"/></flowRegion><flowPara/></flowRoot>
           <g transform="translate(-66.134 .039287)">
            <g transform="translate(-66.173 .043409)">
             <flowRoot transform="matrix(.26458 0 0 .26458 1168.8 -317.87)" fill="#000000" font-family="sans-serif" font-size="40px" letter-spacing="0px" word-spacing="0px" style="line-height:1.25" xml:space="preserve"><flowRegion><rect x="-114.63" y="-91.434" width="675.23" height="522.91"/></flowRegion><flowPara/></flowRoot>
             <g transform="translate(-66.2 -.040316)">
              <g transform="translate(-65.918 -.60254)">
               <g transform="translate(-66.6 .14883)">
                <flowRoot fill="black" font-family="sans-serif" font-size="40px" letter-spacing="0px" word-spacing="0px" style="line-height:1.25" xml:space="preserve"><flowRegion><rect x="-24.34" y="-19.695" width="252.04" height="245.75"/></flowRegion><flowPara/></flowRoot>
                <g transform="translate(-68.678 -.48293)">
                 <flowRoot fill="black" font-family="sans-serif" font-size="40px" letter-spacing="0px" word-spacing="0px" style="line-height:1.25" xml:space="preserve"><flowRegion><rect x="-65.168" y="-26.762" width="382.37" height="335.26"/></flowRegion><flowPara/></flowRoot>
                 <g transform="translate(-63.347 .4912)">
                  <g transform="translate(529.82 -.18087)">
                   <g transform="translate(794.67 .06923)">
                    <g transform="translate(-198.36 .17569)">
                     <g transform="translate(-530.68 .043413)">
                      <g transform="translate(912.04 -.041317)">
                       <g transform="translate(132.58 -.39794)">
                        <g transform="translate(-580.62 .35866)">
                         <g transform="translate(-264.6 -.1571)">
                          <g transform="translate(463.55 .097138)">
                           <g transform="translate(-397.36 .059959)">
                            <g transform="translate(66.026 -.30592)">
                             <g transform="translate(-264.69 -.093008)">
                              <g transform="translate(734.89 179.33)">
                               <g transform="translate(-205.07 -178.97)">
                                <g transform="translate(-1081.1 -686.85)">
                                 <flowRoot fill="black" font-family="sans-serif" font-size="40px" letter-spacing="0px" word-spacing="0px" style="line-height:1.25" xml:space="preserve"><flowRegion><rect x="21" y="-71" width="223" height="308"/></flowRegion><flowPara/></flowRoot>
                                 <g transform="translate(-112.28 .55746)">
                                  <g transform="translate(-396.77 -.26462)">
                                   <g transform="translate(167.68 .26462)">
                                    <g transform="translate(457.35 -.55746)">
                                     <g transform="translate(452.66 .26458)">
                                      <g transform="translate(-200.71 456.02)">
                                       <g transform="translate(750.88 -278.99)">
                                        <rect x="271.1" y="192.33" width="52.632" height="52.632" fill="#87deaa" stroke="#000" stroke-linecap="round" stroke-width=".28429" style="paint-order:fill markers stroke"/>
                                        <text x="297.09879" y="241.58571" font-family="sans-serif" font-size="6.35px" letter-spacing="0px" stroke-width=".26458" text-align="end" text-anchor="end" word-spacing="0px" style="line-height:1.04999995" xml:space="preserve"><tspan x="297.09879" y="241.58571" font-family="sans-serif" font-size="4.9389px" stroke-width=".26458" text-align="center" text-anchor="middle">Pokaż schowek</tspan></text>
                                        <g transform="matrix(.30925 0 0 .30925 283.87 195.79)">
                                         <path d="m31.7 61.6c-1-11.3 12.5-18.5 13-18.8l2.8 5.2c-.1.1-10.5 5.7-9.9 13.1z"/>
                                         <path d="m38.1 73.8 10.6 5.9c-3 1.9-6.7 3-8.5 3.3l1 5.8c.4-.1 7.9-1.4 13.2-6l14.1 7.8 2.9-5.2-13.2-7.3c.5-1 .9-2 1.2-3.2l-5.8-1.3c-.1.6-.4 1.1-.6 1.7l-4.9-2.7 24.3-22.3-32-19.8-3.1 5 25.3 15.7z"/>
                                         <path d="m75 23.5v-12.7h-10.9v-10.8h-64.1v75.5h10.8v10.8h12.7v12.7h64.1v-75.5zm-64.2-12.7v17.6c-1.8 2.7-3 5.9-2.7 9.6l2.7-.2v31.7h-4.9v-63.6h52.3v4.9h-35.1l-6.3-3.8-2.4 3.9h-3.6zm14.9 12.7h-2.1v13.4c-2.7 3.1-4.9 7.2-4.5 12l4.5-.4v31.9h-6.8v-63.6h52.3v6.8h-32.2l-9.2-5.7-3.1 5zm56 69.6h-52.3v-63.7h52.3z"/>
                                        </g>
                                       </g>
                                      </g>
                                     </g>
                                    </g>
                                   </g>
                                  </g>
                                 </g>
                                </g>
                               </g>
                              </g>
                             </g>
                            </g>
                           </g>
                          </g>
                         </g>
                        </g>
                       </g>
                      </g>
                     </g>
                    </g>
                   </g>
                  </g>
                 </g>
                </g>
               </g>
              </g>
             </g>
            </g>
           </g>
          </g>
         </g>
        </g>
       </g>
      </g>
     </g>
    </g>
   </g>
  </g>
 </g>
</svg>
